Sources/FrostedUI/Resources/Icons.xcassets/arrowFatUp16.imageset/arrow-fat-up-16.svg

<svg width="16" height="16" viewBox="0 0 16 16" fill="none" xmlns="http://www.w3.org/2000/svg" data-fui-icon="true">
  <path
    d="M7.03833 0.815552C7.57922 0.313237 8.42243 0.313068 8.96313 0.815552L9.07446 0.930786L13.261 5.79309C13.8651 6.49506 13.3668 7.58241 12.4407 7.58313H10.9172V13.5001C10.9172 14.2823 10.2824 14.9169 9.50024 14.9171H6.50024C5.71801 14.917 5.08429 14.2824 5.08423 13.5001V7.58313H3.56079C2.63407 7.58313 2.13485 6.49531 2.7395 5.79309L6.927 0.930786L7.03833 0.815552ZM4.46997 6.08313H5.83423C6.2479 6.08359 6.58398 6.41941 6.58423 6.83313V13.4171H9.41724V6.83313C9.41748 6.41913 9.75318 6.08313 10.1672 6.08313H11.5305L8.00024 1.98157L4.46997 6.08313Z"
    fill="currentColor"
  />
</svg>

<svg xmlns="http://www.w3.org/2000/svg" width="16" height="16" fill="none" data-fui-icon="true" viewBox="0 0 16 16"><path fill="currentColor" d="M7.038.816a1.417 1.417 0 0 1 1.925 0l.111.115 4.187 4.862c.604.702.106 1.79-.82 1.79h-1.524V13.5c0 .782-.635 1.417-1.417 1.417h-3A1.417 1.417 0 0 1 5.084 13.5V7.583H3.561c-.927 0-1.426-1.088-.821-1.79L6.927.931zM4.47 6.083h1.364c.414 0 .75.336.75.75v6.584h2.833V6.833a.75.75 0 0 1 .75-.75h1.364L8 1.982z"/></svg>
